X:1
T:Title
%%score 1 2 3
L:1/8
M:3/2
K:C
V:1 treble nm="Part_1"
V:2 treble-8 nm="Part_2"
V:3 treble-8 nm="Part_3"
V:1
 G8 A4 | _B8 A4 | c4 _B4 A2 G2 | G6 F2 F2 E2 | G4 A6 G2 | F4 E6 D2 | D6 C2 C2 B,2 | D8 z4 | D8 F4 | %9
 G8 F2 G2 | A4 G2 G4 F2 | G8 F4 | G4 A6 G2 | G4 E2 F4 G2 | F6 E2 E2 D2 | E12 || E8 D4 | G8 A4 | %18
 B2 A2 c2 c4 B2 | c8 z4 | c4 _B4 A4 | G6 F2 F2 E2 | G6 A2 _B4 | _B6 A2 A2 G2 | _B12 | z12 | %26
 _E8 D4 | G8 A2 B2 | c8 _B4 | A4 G2 G4 F2 | G4 A4 G4 | F2 E4 D4 C2 | D4 F2 G2 A4 | G6 F2 F2 E2 | %34
 G8 A2 B2 | c4 _B4 A4 | G8 F4 | G4 A6 G2 | A4 G2 F4 E2 | E6 D2 D2 C2 | E12 || _B8 A4 | _B8 G2 A2 | %43
 _B8 c4 | _B4 A2 G4 F2 | G12- | G8 A4 | _B8 G4 | _B4 c4 A2 G2 | G6 F2 F2 E2 | G8 A4 | G4 F4 E2 D2 | %52
 D6 C2 C2 B,2 | D8 z4 | D4 E4 F4 | G8 F4 | G4 A6 G2 | G6 F2 F2 E2 | G8 D4 | E4 F6 E2 | %60
 E6 D2 D2 C2 | E12 |] %62
V:2
 d8 e4 | f8 e4 | g4 f4 e2 d2 | d6 c2 c2 B2 | d4 e6 d2 | c4 B6 A2 | A6 G2 G2 F2 | A8 z4 | A8 c4 | %9
 d8 c2 d2 | e4 d2 d4 c2 | d8 c4 | d4 e6 d2 | d4 B2 c4 d2 | c6 B2 B2 A2 | B12 || B8 A4 | d8 e4 | %18
 f2 e2 g2 g4 f2 | g8 z4 | g4 f4 e4 | d6 c2 c2 B2 | d6 e2 f4 | f6 e2 e2 d2 | f12 | z12 | _B8 A4 | %27
 d8 e2 f2 | g8 f4 | e4 d2 d4 c2 | d4 e4 d4 | c2 B4 A4 G2 | A4 c2 d2 e4 | d6 c2 c2 B2 | d8 e2 f2 | %35
 g4 f4 e4 | d8 c4 | d4 e6 d2 | e4 d2 c4 B2 | B6 A2 A2 G2 | B12 || f8 e4 | f8 d2 e2 | f8 g4 | %44
 f4 e2 d4 c2 | d12- | d8 e4 | f8 d4 | f4 g4 e2 d2 | d6 c2 c2 B2 | d8 e4 | d4 c4 B2 A2 | %52
 A6 G2 G2 F2 | A8 z4 | A4 B4 c4 | d8 c4 | d4 e6 d2 | d6 c2 c2 B2 | d8 A4 | B4 c6 B2 | B6 A2 A2 G2 | %61
 B12 |] %62
V:3
 G8 c4 | d8 A4 | e4 d4 c4 | B4 A8 | G4 c8 | A4 G8 | F4 E8 | D12- | D8 A4 | G8 A2 B2 | c4 B6 A2 | %11
 G8 A4 | B4 c8 | B4 G2 A4 G2 | A4 G2 E2 F4 | E12 || E8 F4 | G4 B4 c4 | d4 c2 e2 d4 | c8 e4- | %20
 e4 d4 c4 | B4 A8 | G4 B2 c2 d2 _B2 | d4 c8 | _B8 B4 | _E8 D4 | G8 F4 | G4 B4 c2 d2 | e8 d4 | %29
 c4 B2 G2 A4 | G4 c4 B4 | A4 G2 F2 E4 | D4 A2 B2 c4 | B4 A8 | G4 B4 c2 d2 | e4 d4 c4 | B8 A4 | %37
 G4 c8 | A2 c2 B2 A4 E2 | G4 F8 | E12 || _B8 c4 | d8 _B2 c2 | d8 c4 | d4 c2 _B2 A4 | G12 | _B8 c4 | %47
 d8 _B4 | d4 e4 c2 _B2 | G4 _B4 A4 | G8 c4 | _B2 G2 A4 G2 F2- | F2 D2 F4 E4 | D12- | D4 G4 A4 | %55
 G8 A4 | B4 c8 | B4 A8 | G8 F4 | G4 A8 | E4 G4 F4 | E12 |] %62

